dist/img/svg/icon-pr.svg

<svg width="25" height="17" viewBox="0 0 25 17" fill="none" xmlns="http://www.w3.org/2000/svg">
<path d="M11.8027 7.02344C11.8027 7.91797 11.5098 8.60352 10.9238 9.08008C10.3379 9.55664 9.50391 9.79492 8.42188 9.79492H7.53125V13H6.13086V4.43359H8.59766C9.66797 4.43359 10.4688 4.65234 11 5.08984C11.5352 5.52734 11.8027 6.17188 11.8027 7.02344ZM7.53125 8.61719H8.27539C8.99414 8.61719 9.52148 8.49219 9.85742 8.24219C10.1934 7.99219 10.3613 7.60156 10.3613 7.07031C10.3613 6.57812 10.2109 6.21094 9.91016 5.96875C9.60938 5.72656 9.14062 5.60547 8.50391 5.60547H7.53125V8.61719ZM14.9141 8.41797H15.8867C16.5391 8.41797 17.0117 8.29688 17.3047 8.05469C17.5977 7.8125 17.7441 7.45312 17.7441 6.97656C17.7441 6.49219 17.5859 6.14453 17.2695 5.93359C16.9531 5.72266 16.4766 5.61719 15.8398 5.61719H14.9141V8.41797ZM14.9141 9.57812V13H13.5137V4.43359H15.9336C17.0391 4.43359 17.8574 4.64062 18.3887 5.05469C18.9199 5.46875 19.1855 6.09375 19.1855 6.92969C19.1855 7.99609 18.6309 8.75586 17.5215 9.20898L19.9414 13H18.3477L16.2969 9.57812H14.9141Z" fill="#A9BBBE"/>
<rect x="0.5" y="1.5" width="24" height="15" rx="3.5" stroke="#A9BBBE"/>
</svg>

<svg width="25" height="17" viewBox="0 0 25 17" fill="none" xmlns="http://www.w3.org/2000/svg"><path d="M11.803 7.023c0 .895-.293 1.58-.88 2.057-.585.477-1.42.715-2.501.715h-.89V13H6.13V4.434h2.467c1.07 0 1.87.218 2.402.656.535.437.803 1.082.803 1.933zM7.53 8.617h.744c.72 0 1.246-.125 1.582-.375.336-.25.504-.64.504-1.172 0-.492-.15-.86-.45-1.101-.302-.242-.77-.364-1.407-.364H7.53v3.012zm7.383-.199h.973c.652 0 1.125-.121 1.418-.363.293-.242.44-.602.44-1.078 0-.485-.16-.832-.476-1.043-.316-.211-.792-.317-1.43-.317h-.925v2.801zm0 1.16V13h-1.4V4.434h2.42c1.105 0 1.923.207 2.455.62.53.415.797 1.04.797 1.876 0 1.066-.555 1.826-1.665 2.279L19.941 13h-1.593l-2.051-3.422h-1.383z" fill="#A9BBBE"/><rect x=".5" y="1.5" width="24" height="15" rx="3.5" stroke="#A9BBBE"/></svg>
